X: 18254
T: Humours Of Lisslevane, The
R: jig
M: 6/8
K: Edorian
|:B2E EDE|G2E EDE|DEF ~A3|Bed BAG|
B2E EDE|G2E EDE|DEF AFD|1 EFD E2A:|2 EFD E3||
|:g2e ede|g2e ede|g2e ede|~B3 ~e3|
g2e ede|g2e edB|ABd BAF|1 EFD E3:|2 EFD E2A||

